file-delimited.svg

<svg fill="currentColor" viewBox="0 0 24 24"><path d="M14 2H6c-1.1 0-2 .9-2 2v16c0 1.1.9 2 2 2h12c1.1 0 2-.9 2-2V8zm1 14-2 4h-3l2-4H9v-5h6zm-2-7V3.5L18.5 9z"/></svg>

<svg  viewBox="0 0 24 24" fill="currentColor"><path  d="M14 2H6C4.9 2 4 2.9 4 4V20C4 21.1 4.9 22 6 22H18C19.1 22 20 21.1 20 20V8L14 2M15 16L13 20H10L12 16H9V11H15V16M13 9V3.5L18.5 9H13Z"/></svg>
